X:1
T:Title
%%score { ( 1 3 ) | ( 2 4 ) }
L:1/8
Q:1/4=126
M:6/4
K:Db
V:1 treble nm="Grand Piano"
V:3 treble 
V:2 bass 
V:4 bass 
V:1
 F2 F2 F2 F4 F2 | F2 F2 F2 G4 G2 | [CE]2 [CE]2 [CE]2 [CA]4 [CG]2 | B2 A3 =G A6 | %4
w: Melvin~J.~Hill * * * *||||
 [FA]2 [FB]2 [Fc]2 [Fd]4 [FA]2 | B2 d2 B2 [FA]4 [DF]2 | [Ad]2 [Ad]3 B A4 d2 | %7
w: |||
 [Ge]2 [Fd]2 [Ec]2 [Fd]6 | .[FA]12 | [Fd]12 | .d12 | [FA]12 | .[DF]12[K:bass] | z2 A4- A4 z2 | %14
w: |||||||
 .[DF]12[K:bass] | A12 | .[FA]12 | [Fd]12 | .d12 | [FA]12 | .e12 |[M:7/4] z2 D2 D2 d6 e2 | %22
w: ||||||||
[M:13/8] f-f-f- f3 e- e3 [Gc]3 |[M:6/4] [Fd]12 |] %24
w: ||
V:2
 [D,A,D]2 [D,A,D]2 [D,A,D]2 [D,A,D]4 [D,A,D]2 | [D,A,D]2 [D,A,D]2 [D,A,D]2 [E,A,C]4 [E,A,C]2 | %2
 [A,,A,]2 [A,,A,]2 [A,,A,]2 [A,,E,]4 [A,,E,]2 | [D,F,D]2 [D,F,D]3 [D,_F,D] [D,=F,D]6 | %4
 [D,A,]2 [D,A,]2 [D,A,]2 [D,A,]4 [D,D]2 | [G,DG]2 [G,B,G]2 [G,DG]2 [D,D]4 [D,A,]2 | %6
 [F,A,]2 [F,D]3[K:treble] [G,DG] [A,DF]4 [A,F]2 | [A,,A,]2 [A,,A,]2 [A,,A,]2 [D,A,]6 | %8
 [D,D]2 D,2 D,2 D,2[K:treble] G2 G2 | [D,A,]2 D,2 D,2 .D,6 | .G12[K:treble] | D,2 D,2 D,2 .D,6 | %12
 D,2 D,2 D,2 D,2 [D,G,D]2 [D,F,]2 | z2 D4- D4 z2 | B,,2 B,,2 B,,2 B,,2 B,,2 B,,2 | %15
 z2 A,2 B,2 C2 D2 E2 | D,2 D,2 D,2 D,2[K:treble] G2 G2 | [D,A,]2 D,2 D,2 .D,6 | %18
 G2- [G,G-]2 [G,G-]2 [G,G]2[K:treble] G2 G2 | D,2 D,2 D,2 .D,6 | %20
 G2- [G,G-]2 [G,G-]2 [G,G]2 [G,B,D]2 [G,B,D]2 | %21
[M:7/4][K:treble] F2- [A,F-]2 [A,F]2 [B,DF]6 [=A,CG]2 | %22
[M:13/8] [A,DA]-[A,DA]-[A,DA]- [A,DA]3 [A,CG]- [A,CG]3[K:bass] [A,,A,]3 |[M:6/4] [D,A,]12 |] %24
V:3
 x12 | x12 | x12 | x12 | x12 | x12 | x12 | x12 | z2 D2 D2 D2 B2 c2 | z2 A,2 A,2 .A,6 | %10
 z2 B,2 B,2 B,2 B2 d2 | D2 D2 D2 .D6 | A,2[K:bass] A,2 A,2 A,2 E2 D2 | .F4 F,2 .F,6 | %14
 B,2[K:bass] B,2 B,2 =G,2 [G,DE]2 [G,D]2 | [A,C]2 C2 D2 E2 F2 G2 | D2 D2 D2 D2 B2 c2 | %17
 z2 A,2 A,2 .A,6 | z2 B,2 B,2 B,2 B2 d2 | D2 D2 D2 .D6 | z2 B,2 B,2 B,2 d2 B2 | %21
[M:7/4] A6 z2 z2 z4 |[M:13/8] x13 |[M:6/4] x12 |] %24
V:4
 x12 | x12 | x12 | x12 | x12 | x12 | x5[K:treble] x7 | x12 | x8[K:treble] x4 | x12 | %10
 [G,B,]2 G,2 G,2 G,2[K:treble] G2 G2 | x12 | x12 | [D,A,D]2 [D,F,]2 D,2 .D,6 | x12 | A,,12 | %16
 x8[K:treble] x4 | x12 | .[G,B,]6 z6[K:treble] | x12 | .[G,B,]6 z6 | %21
[M:7/4][K:treble] [A,D]2 z2 z2 z2 z2 z4 |[M:13/8] x10[K:bass] x3 |[M:6/4] x12 |] %24

